src/assets/logos/mobi.svg

<svg height="78" viewBox="0 0 234 78" width="234" xmlns="http://www.w3.org/2000/svg"><path d="m208.905885 3.77585455v7.29718695l-6.466516 3.6666944h-.001183l-6.466516-3.6666944v-7.29718695l6.467699-3.6292309 6.466254 3.62937946zm24.815757 72.59407755h-233.721642v-70.85735591h190.119139v5.70088111h-184.41855346v59.4555937h222.32017546v-59.4555937h-13.502382v-5.70088111h19.203263zm-171.7178712-49.4269499-12.8629734 32.909796h-3.4412216l-12.539278-33.0853897.14485 33.0853897h-4.1544451v-37.1964685h6.881172l11.6438687 30.69773 11.8197579-30.69773h6.6888171l-.038134 37.1964685-4.218386-.0100508zm56.1429632 24.6432671c1.89044-3.1163438 2.422838-6.9378704 2.422838-10.9883487 0-4.2819426-.869691-8.0338526-3.049831-10.6458819-2.180731-2.612325-5.558692-4.0475222-9.339868-4.0475222-3.668842 0-6.95605 1.1750585-9.2733541 3.762552-2.3170083 2.5871979-3.3348011 6.986203-3.3348011 12.0284602 0 4.0342196.8912708 7.7487346 2.8789671 10.517734 1.9871051 2.769295 5.4649831 4.3041136 9.9222231 4.3041136 4.231984 0 7.882795-1.8144677 9.773826-4.931107zm3.477582-23.2875896c2.348935 3.2212861 3.619771 7.320836 3.619771 12.3424003 0 5.4348302-1.132194 9.9950917-3.819309 13.5959438-3.153887 4.229028-7.789973 6.1712001-13.630974 6.1712001-5.454932 0-9.743378-1.8499411-12.8647471-5.5501189-2.7840757-3.5683348-4.003476-7.9679311-4.003476-13.4191677 0-4.9222386.9249706-9.3244954 3.3064224-12.8266131 3.0569257-4.4930097 7.6959677-6.584466 13.6818187-6.584466 6.259293 0 10.701162 2.1414147 13.710494 6.2708215zm78.801638 31.611083v-37.2536399h4.488871v37.2536399zm-50.547616-37.253433h13.789127c4.712649 0 7.977095 1.651881 9.653216 4.255042.983797 1.5386614 1.368389 3.0048979 1.368389 5.0168345 0 2.3501169-.921128 4.2364183-2.127817 5.7407888-2.394754 2.0882045-3.915088 2.0122322-5.207209 2.5443341 2.128112.3798617 4.180548 1.0639083 5.966637 2.5461079 1.512352 1.6232065 2.677655 3.4140252 2.677655 6.2708805 0 2.4009623-.684835 4.5730063-2.051844 6.5176577-3.673869 3.8700957-5.739018 4.0156023-9.586112 4.1657079-3.350272.1307206-8.177619.196081-14.482042.196081zm14.390106 33.3983248c2.821914 0 5.061768-1.5513728 6.036697-3.1441313.755585-1.1324903 1.001534-2.463632 1.001534-4.0699887 0-2.7049107-1.025774-4.492182-3.23045-5.4730233-1.172102-.5238248-2.666718-1.1079545-4.594109-1.1079545h-9.135895v13.7950978zm-1.541026-17.5136035c1.944537 0 3.774376-.5483607 4.854543-1.1401763 1.697701-.9297003 2.546404-2.6746991 2.546404-5.0928068 0-2.4346621-1.044694-4.0191434-2.850293-4.8645943-1.018975-.4732751-2.706625-1.1097282-4.712945-1.1097282h-8.218906v12.2073056z" fill-rule="evenodd" transform="translate(0 .805)"/></svg>

<svg xmlns="http://www.w3.org/2000/svg" width="234" height="78" viewBox="0 0 234 78">
  <path fill-rule="evenodd" d="M208.905885,3.77585455 L208.905885,11.0730415 L202.439369,14.7397359 L202.438186,14.7397359 L202.438186,14.7397359 L195.97167,11.0730415 L195.97167,3.77585455 L202.439369,0.146623648 L208.905623,3.77600311 Z M233.721642,76.3699321 L0,76.3699321 L0,5.51257619 L190.119139,5.51257619 L190.119139,11.2134573 L5.70058554,11.2134573 L5.70058554,70.669051 L228.020761,70.669051 L228.020761,11.2134573 L214.518379,11.2134573 L214.518379,5.51257619 L233.721642,5.51257619 L233.721642,76.3699321 Z M62.0037708,26.9429822 L49.1407974,59.8527782 L45.6995758,59.8527782 L33.1602978,26.7673885 L33.3051478,59.8527782 L29.1507027,59.8527782 L29.1507027,22.6563097 L36.0318747,22.6563097 L47.6757434,53.3540397 L59.4955013,22.6563097 L66.1843184,22.6563097 L66.1461844,59.8527782 L61.9277984,59.8427274 L62.0037708,26.9429822 Z M118.146734,51.5862493 C120.037174,48.4699055 120.569572,44.6483789 120.569572,40.5979006 C120.569572,36.315958 119.699881,32.564048 117.519741,29.9520187 C115.33901,27.3396937 111.961049,25.9044965 108.179873,25.9044965 C104.511031,25.9044965 101.223823,27.079555 98.9065189,29.6670485 C96.5895106,32.2542464 95.5717178,36.6532515 95.5717178,41.6955087 C95.5717178,45.7297283 96.4629886,49.4442433 98.4506849,52.2132427 C100.43779,54.9825377 103.915668,56.5173563 108.372908,56.5173563 C112.604892,56.5173563 116.255703,54.7028886 118.146734,51.5862493 Z M121.624316,28.2986597 C123.973251,31.5199458 125.244087,35.6194957 125.244087,40.64106 C125.244087,46.0758902 124.111893,50.6361517 121.424778,54.2370038 C118.270891,58.4660318 113.634805,60.4082039 107.793804,60.4082039 C102.338872,60.4082039 98.050426,58.5582628 94.9290569,54.858085 C92.1449812,51.2897502 90.9255809,46.8901539 90.9255809,41.4389173 C90.9255809,36.5166787 91.8505515,32.1144219 94.2320033,28.6123042 C97.288929,24.1192945 101.927971,22.0278382 107.913822,22.0278382 C114.173115,22.0278382 118.614984,24.1692529 121.624316,28.2986597 Z M200.425954,59.9097427 L200.425954,22.6561028 L204.914825,22.6561028 L204.914825,59.9097427 L200.425954,59.9097427 Z M149.878338,22.6563097 L163.667465,22.6563097 C168.380114,22.6563097 171.64456,24.3081907 173.320681,26.9113517 C174.304478,28.4500131 174.68907,29.9162496 174.68907,31.9281862 C174.68907,34.2783031 173.767942,36.1646045 172.561253,37.668975 C170.166499,39.7571795 168.646165,39.6812072 167.354044,40.2133091 C169.482156,40.5931708 171.534592,41.2772174 173.320681,42.759417 C174.833033,44.3826235 175.998336,46.1734422 175.998336,49.0302975 C175.998336,51.4312598 175.313501,53.6033038 173.946492,55.5479552 C170.272623,59.4180509 168.207474,59.5635575 164.36038,59.7136631 C161.010108,59.8443837 156.182761,59.9097441 149.878338,59.9097441 L149.878338,22.6563097 Z M164.268444,56.0546345 C167.090358,56.0546345 169.330212,54.5032617 170.305141,52.9105032 C171.060726,51.7780129 171.306675,50.4468712 171.306675,48.8405145 C171.306675,46.1356038 170.280901,44.3483325 168.076225,43.3674912 C166.904123,42.8436664 165.409507,42.2595367 163.482116,42.2595367 L154.346221,42.2595367 L154.346221,56.0546345 L164.268444,56.0546345 Z M162.727418,38.541031 C164.671955,38.541031 166.501794,37.9926703 167.581961,37.4008547 C169.279662,36.4711544 170.128365,34.7261556 170.128365,32.3080479 C170.128365,29.8733858 169.083671,28.2889045 167.278072,27.4434536 C166.259097,26.9701785 164.571447,26.3337254 162.565127,26.3337254 L154.346221,26.3337254 L154.346221,38.541031 L162.727418,38.541031 Z" transform="translate(0 .805)"/>
</svg>
